X:1
T:9 Lieder and Songs, Op.32
T:Wie rafft ich mich auf in der Nacht
T:1. Wie rafft ich mich auf in der Nacht
T:Johannes Brahms
T:August von Platen
T:9 Lieder and Songs, Op.32
T:Creative Commons copyright waiver (CC0 1.0 Universal) 
T:Creative Commons copyright waiver (CC0 1.0 Universal) 
T:Creative Commons copyright waiver (CC0 1.0 Universal) 
T:Creative Commons copyright waiver (CC0 1.0 Universal) 
T:Creative Commons copyright waiver (CC0 1.0 Universal) 
T:Creative Commons copyright waiver (CC0 1.0 Universal) 
C:Johannes Brahms
Z:August von Platen
Z:Creative Commons copyright waiver (CC0 1.0 Universal)
Z:
L:1/8
Q:1/4=92
M:4/4
K:Ab
V:1 treble nm="Singstimme\nVoice"
V:1
"^Andante" z4 z2 z F | F2 D3/2 E/ F2 G3/2 A/ | F2 z2 z2 B3/2 c/ | A2 z2 z2 z3/2 c/ | %4
w: Wie|rafft ich mich  auf in der|Nacht, in der|Nacht, und|
 d2 A z/ __e/ d2 A z/ =d/ | _e2 B z/ _f/ e2 B z | =f2 c3/2 e/ (d>c) B3/2 =B/ | c2 G z z2 z ^F | %8
w: fühl- te mich für- der, mich|für- der ge- zo- gen,|fühl- te mich für- * der ge-|zo- gen, die|
 (G=d) e f e2 d c | (=Bc) _B A G2 z G | c2 c c G2 G G | A2 A A =E2 z E | F2 A c d2 B G | c8 | %14
w: Gas- * sen ver- liess ich vom|Wäch- * ter be- wacht, durch-|wan- del- te sacht in der|Nacht, in der Nacht, das|Tor mit dem go- ti- schen|Bo-|
 F2 z2 z4 | z8 | z8 | z4 z2 z c | d3 d c2 A F | c2 c c B2 z B | (BA) G F (BA) G F | G4 G2 z c | %22
w: gen.|||Der|Mühl- bach rausch- te durch|fel- si- gen Schacht, ich|lehn- * te mich ü- * ber die|Brü- cke, tief|
 d2 d d c2 c c | e2 e e =d2 z d | (fe) =d c (fe) d c | =d2 e d d2 z G | (^F=B) ^c =d =f2 e d | %27
w: un- ter mir nahm ich der|Wo- gen in acht, die|wall- * ten so sacht _ in der|Nacht, in der Nacht, doch|wall- * te nicht ei- ne zu-|
 =d2 =c2 z2 z e | (e_d) c B (BA) F =D | G8 | C2 z2 z4 | z4 z2 z c | d2 d d c2 A F | c2 c c B2 z B | %34
w: rü- cke, doch|wall- * te nicht ei- * ne zu-|rü-|cke.|Es|dreh- te sich o- ben un-|zäh- lig ent- facht me-|
 (BA) G F (BA) G F | G4 G2 z c | d2 d d c2 c c | e2 e e =d2 z d | (fe) =d c (fe) d c | %39
w: lo- * di- scher Wan- * del der|Ster- ne, mit|ih- nen der Mond in be-|ru- hig- ter Pracht, sie|fun- * kel- ten sacht _ in der|
 =d2 e d d2 z G | (^F=B) ^c =d =f2 e d | =d2 =c2 z2 z e | (e_d) c B (BA) F =D | G8 | C2 z2 z4 | %45
w: Nacht, in der Nacht, durch|täu- * schend  ent- le- ge- ne|Fer- ne durch|täu- * schend  ent- le- * ge- ne|Fer-|ne.|
 z4 z2 z c | c2 A3/2 B/ c2 =d3/2 e/ | c2 z2 z2 =d3/2 e/ | c2 z2 z2 z c | d2 A z/ c/ d2 A z/ =d/ | %50
w: Ich|blick- te hin- auf in der|Nacht, in der|Nacht, und|blick- te hin- un- ter, hin-|
 e2 B z/ _f/ e2 B z/ =e/ | =f2 c3/2 _e/ (d>c) B3/2 =B/ | c2 G z z2 z ^F | (G=d) e =f e2 d c | %54
w: un- ter aufs  Neu- e, und|blick- te hin- un- * ter aufs|Neu- e: O|we- * he, wie hast du die|
 (Ae) _f _g =e2 z d | __e2 _c A d2 __B _G | _c2 d A __B2 z _G | d2 d d A2 A A | =A2 A A F2 z F | %59
w: Ta- * ge ver- bracht, o|we- he, wie hast du die|Ta- ge ver bracht, nun|stil- le du sacht in der|Nacht, in der Nacht, im|
 _G2 B B d2 B =G | c8 | F2 z2 z4 | z8 | z8 | z8 | z8 | z8 |] %67
w: po- chen- den Her- zen die|Reu-|e!||||||

